images/icons/logo-small.svg

<svg width="21" height="21" viewBox="0 0 21 21" fill="none" xmlns="http://www.w3.org/2000/svg">
<g id="chocolate">
<path id="Vector 14" d="M2.58812 13.1747L9.66043 1.74L10.0804 1.29762L15.4851 4.90119L15.5221 7.07579L16.8412 9.22801L11.0139 18.4658L2.58812 13.1747Z" fill="#FCF1E0"/>
<path id="Vector" d="M14.1979 15.671L4.88863 9.85388M7.45579 5.64288L16.765 11.46M6.9761 16.9734L14.6776 4.34042M17.8347 9.70537C15.8399 8.45885 15.0564 7.48468 16.3399 5.37918L10.0229 1.43188L2.32147 14.0649L11.6307 19.882L17.8347 9.70537Z" stroke="#FD9222" stroke-width="1.8" stroke-linecap="round" stroke-linejoin="round"/>
</g>
</svg>

<svg xmlns="http://www.w3.org/2000/svg" width="21" height="21" fill="none"><path fill="#FCF1E0" d="M2.588 13.175 9.66 1.74l.42-.442L15.485 4.9l.037 2.175 1.32 2.152-5.828 9.238-8.426-5.291Z"/><path stroke="#FD9222" stroke-linecap="round" stroke-linejoin="round" stroke-width="1.8" d="m14.198 15.671-9.31-5.817m2.568-4.211 9.309 5.817m-9.789 5.513L14.678 4.34m3.157 5.365C15.84 8.46 15.056 7.485 16.34 5.38l-6.317-3.947L2.32 14.065l9.31 5.817 6.204-10.177Z"/></svg>
